research/resources/ocio/configurations/aces_1.2/aces_vwg_gm/T_Log_to_linear.spi1d
Version 1
From 0.0000000 1.0000000
Length 4096
Components 1
{
 -0.0046341
 -0.0046190
 -0.0046039
 -0.0045888
 -0.0045737
 -0.0045587
 -0.0045436
 -0.0045285
 -0.0045134
 -0.0044983
 -0.0044832
 -0.0044681
 -0.0044530
 -0.0044379
 -0.0044229
 -0.0044078
 -0.0043927
 -0.0043776
 -0.0043625
 -0.0043474
 -0.0043323
 -0.0043172
 -0.0043021
 -0.0042871
 -0.0042720
 -0.0042569
 -0.0042418
 -0.0042267
 -0.0042116
 -0.0041965
 -0.0041814
 -0.0041664
 -0.0041513
 -0.0041362
 -0.0041211
 -0.0041060
 -0.0040909
 -0.0040758
 -0.0040607
 -0.0040456
 -0.0040306
 -0.0040155
 -0.0040004
 -0.0039853
 -0.0039702
 -0.0039551
 -0.0039400
 -0.0039249
 -0.0039098
 -0.0038948
 -0.0038797
 -0.0038646
 -0.0038495
 -0.0038344
 -0.0038193
 -0.0038042
 -0.0037891
 -0.0037740
 -0.0037590
 -0.0037439
 -0.0037288
 -0.0037137
 -0.0036986
 -0.0036835
 -0.0036684
 -0.0036533
 -0.0036382
 -0.0036232
 -0.0036081
 -0.0035930
 -0.0035779
 -0.0035628
 -0.0035477
 -0.0035326
 -0.0035175
 -0.0035025
 -0.0034874
 -0.0034723
 -0.0034572
 -0.0034421
 -0.0034270
 -0.0034119
 -0.0033968
 -0.0033817
 -0.0033667
 -0.0033516
 -0.0033365
 -0.0033214
 -0.0033063
 -0.0032912
 -0.0032761
 -0.0032610
 -0.0032459
 -0.0032309
 -0.0032158
 -0.0032007
 -0.0031856
 -0.0031705
 -0.0031554
 -0.0031403
 -0.0031252
 -0.0031101
 -0.0030951
 -0.0030800
 -0.0030649
 -0.0030498
 -0.0030347
 -0.0030196
 -0.0030045
 -0.0029894
 -0.0029743
 -0.0029593
 -0.0029442
 -0.0029291
 -0.0029140
 -0.0028989
 -0.0028838
 -0.0028687
 -0.0028536
 -0.0028386
 -0.0028235
 -0.0028084
 -0.0027933
 -0.0027782
 -0.0027631
 -0.0027480
 -0.0027329
 -0.0027178
 -0.0027028
 -0.0026877
 -0.0026726
 -0.0026575
 -0.0026424
 -0.0026273
 -0.0026122
 -0.0025971
 -0.0025820
 -0.0025670
 -0.0025519
 -0.0025368
 -0.0025217
 -0.0025066
 -0.0024915
 -0.0024764
 -0.0024613
 -0.0024462
 -0.0024312
 -0.0024161
 -0.0024010
 -0.0023859
 -0.0023708
 -0.0023557
 -0.0023406
 -0.0023255
 -0.0023104
 -0.0022954
 -0.0022803
 -0.0022652
 -0.0022501
 -0.0022350
 -0.0022199
 -0.0022048
 -0.0021897
 -0.0021747
 -0.0021596
 -0.0021445
 -0.0021294
 -0.0021143
 -0.0020992
 -0.0020841
 -0.0020690
 -0.0020539
 -0.0020389
 -0.0020238
 -0.0020087
 -0.0019936
 -0.0019785
 -0.0019634
 -0.0019483
 -0.0019332
 -0.0019181
 -0.0019031
 -0.0018880
 -0.0018729
 -0.0018578
 -0.0018427
 -0.0018276
 -0.0018125
 -0.0017974
 -0.0017823
 -0.0017673
 -0.0017522
 -0.0017371
 -0.0017220
 -0.0017069
 -0.0016918
 -0.0016767
 -0.0016616
 -0.0016465
 -0.0016315
 -0.0016164
 -0.0016013
 -0.0015862
 -0.0015711
 -0.0015560
 -0.0015409
 -0.0015258
 -0.0015108
 -0.0014957
 -0.0014806
 -0.0014655
 -0.0014504
 -0.0014353
 -0.0014202
 -0.0014051
 -0.0013900
 -0.0013750
 -0.0013599
 -0.0013448
 -0.0013297
 -0.0013146
 -0.0012995
 -0.0012844
 -0.0012693
 -0.0012542
 -0.0012392
 -0.0012241
 -0.0012090
 -0.0011939
 -0.0011788
 -0.0011637
 -0.0011486
 -0.0011335
 -0.0011184
 -0.0011034
 -0.0010883
 -0.0010732
 -0.0010581
 -0.0010430
 -0.0010279
 -0.0010128
 -0.0009977
 -0.0009826
 -0.0009676
 -0.0009525
 -0.0009374
 -0.0009223
 -0.0009072
 -0.0008921
 -0.0008770
 -0.0008619
 -0.0008468
 -0.0008318
 -0.0008167
 -0.0008016
 -0.0007865
 -0.0007714
 -0.0007563
 -0.0007412
 -0.0007261
 -0.0007111
 -0.0006960
 -0.0006809
 -0.0006658
 -0.0006507
 -0.0006356
 -0.0006205
 -0.0006054
 -0.0005903
 -0.0005753
 -0.0005602
 -0.0005451
 -0.0005300
 -0.0005149
 -0.0004998
 -0.0004847
 -0.0004696
 -0.0004545
 -0.0004395
 -0.0004244
 -0.0004093
 -0.0003942
 -0.0003791
 -0.0003640
 -0.0003489
 -0.0003338
 -0.0003187
 -0.0003037
 -0.0002886
 -0.0002735
 -0.0002584
 -0.0002433
 -0.0002282
 -0.0002131
 -0.0001980
 -0.0001829
 -0.0001679
 -0.0001528
 -0.0001377
 -0.0001226
 -0.0001075
 -0.0000924
 -0.0000773
 -0.0000622
 -0.0000472
 -0.0000321
 -0.0000170
 -0.0000019
 0.0000132
 0.0000284
 0.0000435
 0.0000588
 0.0000740
 0.0000893
 0.0001047
 0.0001201
 0.0001355
 0.0001510
 0.0001665
 0.0001820
 0.0001976
 0.0002132
 0.0002289
 0.0002446
 0.0002604
 0.0002762
 0.0002920
 0.0003079
 0.0003238
 0.0003398
 0.0003558
 0.0003719
 0.0003880
 0.0004041
 0.0004203
 0.0004365
 0.0004528
 0.0004691
 0.0004854
 0.0005018
 0.0005182
 0.0005347
 0.0005512
 0.0005678
 0.0005844
 0.0006011
 0.0006178
 0.0006345
 0.0006513
 0.0006682
 0.0006850
 0.0007020
 0.0007189
 0.0007359
 0.0007530
 0.0007701
 0.0007872
 0.0008044
 0.0008217
 0.0008390
 0.0008563
 0.0008737
 0.0008911
 0.0009086
 0.0009261
 0.0009436
 0.0009612
 0.0009789
 0.0009966
 0.0010143
 0.0010321
 0.0010500
 0.0010679
 0.0010858
 0.0011038
 0.0011218
 0.0011399
 0.0011580
 0.0011762
 0.0011944
 0.0012127
 0.0012310
 0.0012494
 0.0012678
 0.0012863
 0.0013048
 0.0013234
 0.0013420
 0.0013606
 0.0013793
 0.0013981
 0.0014169
 0.0014358
 0.0014547
 0.0014737
 0.0014927
 0.0015117
 0.0015308
 0.0015500
 0.0015692
 0.0015885
 0.0016078
 0.0016272
 0.0016466
 0.0016660
 0.0016856
 0.0017051
 0.0017248
 0.0017444
 0.0017642
 0.0017840
 0.0018038
 0.0018237
 0.0018436
 0.0018636
 0.0018836
 0.0019037
 0.0019239
 0.0019441
 0.0019644
 0.0019847
 0.0020050
 0.0020254
 0.0020459
 0.0020664
 0.0020870
 0.0021077
 0.0021284
 0.0021491
 0.0021699
 0.0021908
 0.0022117
 0.0022326
 0.0022537
 0.0022747
 0.0022959
 0.0023171
 0.0023383
 0.0023596
 0.0023810
 0.0024024
 0.0024238
 0.0024454
 0.0024670
 0.0024886
 0.0025103
 0.0025321
 0.0025539
 0.0025757
 0.0025977
 0.0026197
 0.0026417
 0.0026638
 0.0026860
 0.0027082
 0.0027305
 0.0027528
 0.0027752
 0.0027977
 0.0028202
 0.0028428
 0.0028654
 0.0028881
 0.0029109
 0.0029337
 0.0029566
 0.0029795
 0.0030025
 0.0030256
 0.0030487
 0.0030719
 0.0030951
 0.0031184
 0.0031418
 0.0031652
 0.0031887
 0.0032123
 0.0032359
 0.0032595
 0.0032833
 0.0033071
 0.0033310
 0.0033549
 0.0033789
 0.0034029
 0.0034271
 0.0034512
 0.0034755
 0.0034998
 0.0035242
 0.0035486
 0.0035731
 0.0035977
 0.0036223
 0.0036470
 0.0036718
 0.0036966
 0.0037215
 0.0037465
 0.0037715
 0.0037966
 0.0038218
 0.0038470
 0.0038723
 0.0038977
 0.0039231
 0.0039486
 0.0039742
 0.0039998
 0.0040255
 0.0040513
 0.0040771
 0.0041030
 0.0041290
 0.0041551
 0.0041812
 0.0042074
 0.0042336
 0.0042599
 0.0042863
 0.0043128
 0.0043393
 0.0043659
 0.0043926
 0.0044193
 0.0044461
 0.0044730
 0.0045000
 0.0045270
 0.0045541
 0.0045813
 0.0046085
 0.0046358
 0.0046632
 0.0046907
 0.0047182
 0.0047458
 0.0047735
 0.0048012
 0.0048291
 0.0048569
 0.0048849
 0.0049130
 0.0049411
 0.0049693
 0.0049976
 0.0050259
 0.0050543
 0.0050828
 0.0051114
 0.0051400
 0.0051687
 0.0051975
 0.0052264
 0.0052554
 0.0052844
 0.0053135
 0.0053427
 0.0053719
 0.0054013
 0.0054307
 0.0054602
 0.0054897
 0.0055194
 0.0055491
 0.0055789
 0.0056088
 0.0056388
 0.0056688
 0.0056989
 0.0057291
 0.0057594
 0.0057898
 0.0058202
 0.0058507
 0.0058813
 0.0059120
 0.0059428
 0.0059736
 0.0060046
 0.0060356
 0.0060667
 0.0060979
 0.0061291
 0.0061605
 0.0061919
 0.0062234
 0.0062550
 0.0062867
 0.0063184
 0.0063503
 0.0063822
 0.0064142
 0.0064463
 0.0064785
 0.0065107
 0.0065431
 0.0065755
 0.0066080
 0.0066407
 0.0066733
 0.0067061
 0.0067390
 0.0067720
 0.0068050
 0.0068381
 0.0068714
 0.0069047
 0.0069381
 0.0069715
 0.0070051
 0.0070388
 0.0070725
 0.0071064
 0.0071403
 0.0071743
 0.0072084
 0.0072426
 0.0072769
 0.0073113
 0.0073458
 0.0073803
 0.0074150
 0.0074497
 0.0074846
 0.0075195
 0.0075545
 0.0075896
 0.0076248
 0.0076601
 0.0076955
 0.0077310
 0.0077666
 0.0078023
 0.0078381
 0.0078739
 0.0079099
 0.0079459
 0.0079821
 0.0080183
 0.0080547
 0.0080911
 0.0081277
 0.0081643
 0.0082010
 0.0082379
 0.0082748
 0.0083118
 0.0083489
 0.0083861
 0.0084235
 0.0084609
 0.0084984
 0.0085360
 0.0085737
 0.0086115
 0.0086495
 0.0086875
 0.0087256
 0.0087638
 0.0088021
 0.0088406
 0.0088791
 0.0089177
 0.0089564
 0.0089953
 0.0090342
 0.0090732
 0.0091124
 0.0091516
 0.0091909
 0.0092304
 0.0092699
 0.0093096
 0.0093494
 0.0093892
 0.0094292
 0.0094693
 0.0095095
 0.0095498
 0.0095902
 0.0096307
 0.0096713
 0.0097120
 0.0097529
 0.0097938
 0.0098348
 0.0098760
 0.0099173
 0.0099586
 0.0100001
 0.0100417
 0.0100834
 0.0101252
 0.0101671
 0.0102092
 0.0102513
 0.0102936
 0.0103360
 0.0103784
 0.0104210
 0.0104637
 0.0105066
 0.0105495
 0.0105925
 0.0106357
 0.0106790
 0.0107224
 0.0107659
 0.0108095
 0.0108532
 0.0108971
 0.0109411
 0.0109851
 0.0110293
 0.0110737
 0.0111181
 0.0111626
 0.0112073
 0.0112521
 0.0112970
 0.0113420
 0.0113872
 0.0114325
 0.0114778
 0.0115234
 0.0115690
 0.0116147
 0.0116606
 0.0117066
 0.0117527
 0.0117989
 0.0118453
 0.0118918
 0.0119384
 0.0119851
 0.0120319
 0.0120789
 0.0121260
 0.0121732
 0.0122206
 0.0122681
 0.0123157
 0.0123634
 0.0124112
 0.0124592
 0.0125073
 0.0125556
 0.0126039
 0.0126524
 0.0127010
 0.0127498
 0.0127986
 0.0128476
 0.0128968
 0.0129460
 0.0129954
 0.0130450
 0.0130946
 0.0131444
 0.0131943
 0.0132444
 0.0132946
 0.0133449
 0.0133953
 0.0134459
 0.0134966
 0.0135475
 0.0135985
 0.0136496
 0.0137009
 0.0137523
 0.0138038
 0.0138555
 0.0139073
 0.0139592
 0.0140113
 0.0140635
 0.0141158
 0.0141683
 0.0142210
 0.0142737
 0.0143267
 0.0143797
 0.0144329
 0.0144862
 0.0145397
 0.0145933
 0.0146471
 0.0147010
 0.0147550
 0.0148092
 0.0148635
 0.0149180
 0.0149726
 0.0150274
 0.0150823
 0.0151373
 0.0151925
 0.0152479
 0.0153034
 0.0153590
 0.0154148
 0.0154707
 0.0155268
 0.0155830
 0.0156394
 0.0156960
 0.0157526
 0.0158095
 0.0158664
 0.0159236
 0.0159808
 0.0160383
 0.0160959
 0.0161536
 0.0162115
 0.0162695
 0.0163277
 0.0163861
 0.0164446
 0.0165032
 0.0165621
 0.0166210
 0.0166802
 0.0167394
 0.0167989
 0.0168585
 0.0169182
 0.0169782
 0.0170382
 0.0170985
 0.0171589
 0.0172194
 0.0172801
 0.0173410
 0.0174020
 0.0174632
 0.0175246
 0.0175861
 0.0176478
 0.0177096
 0.0177716
 0.0178338
 0.0178962
 0.0179587
 0.0180213
 0.0180842
 0.0181472
 0.0182103
 0.0182737
 0.0183372
 0.0184009
 0.0184647
 0.0185287
 0.0185929
 0.0186572
 0.0187218
 0.0187864
 0.0188513
 0.0189163
 0.0189815
 0.0190469
 0.0191125
 0.0191782
 0.0192441
 0.0193102
 0.0193764
 0.0194429
 0.0195095
 0.0195762
 0.0196432
 0.0197103
 0.0197776
 0.0198451
 0.0199128
 0.0199806
 0.0200487
 0.0201169
 0.0201852
 0.0202538
 0.0203226
 0.0203915
 0.0204606
 0.0205299
 0.0205994
 0.0206690
 0.0207389
 0.0208089
 0.0208791
 0.0209495
 0.0210201
 0.0210909
 0.0211619
 0.0212330
 0.0213044
 0.0213759
 0.0214476
 0.0215195
 0.0215916
 0.0216639
 0.0217364
 0.0218091
 0.0218820
 0.0219550
 0.0220283
 0.0221017
 0.0221754
 0.0222492
 0.0223232
 0.0223975
 0.0224719
 0.0225465
 0.0226213
 0.0226964
 0.0227716
 0.0228470
 0.0229226
 0.0229984
 0.0230744
 0.0231507
 0.0232271
 0.0233037
 0.0233805
 0.0234576
 0.0235348
 0.0236122
 0.0236899
 0.0237677
 0.0238458
 0.0239240
 0.0240025
 0.0240812
 0.0241601
 0.0242392
 0.0243185
 0.0243980
 0.0244777
 0.0245576
 0.0246378
 0.0247181
 0.0247987
 0.0248795
 0.0249605
 0.0250417
 0.0251231
 0.0252048
 0.0252866
 0.0253687
 0.0254510
 0.0255335
 0.0256163
 0.0256992
 0.0257824
 0.0258658
 0.0259494
 0.0260332
 0.0261173
 0.0262016
 0.0262861
 0.0263708
 0.0264557
 0.0265409
 0.0266263
 0.0267119
 0.0267978
 0.0268839
 0.0269702
 0.0270567
 0.0271435
 0.0272305
 0.0273177
 0.0274051
 0.0274928
 0.0275808
 0.0276689
 0.0277573
 0.0278459
 0.0279348
 0.0280239
 0.0281132
 0.0282027
 0.0282925
 0.0283826
 0.0284729
 0.0285634
 0.0286541
 0.0287451
 0.0288364
 0.0289278
 0.0290196
 0.0291115
 0.0292037
 0.0292962
 0.0293889
 0.0294818
 0.0295750
 0.0296685
 0.0297621
 0.0298561
 0.0299502
 0.0300447
 0.0301394
 0.0302343
 0.0303295
 0.0304249
 0.0305206
 0.0306165
 0.0307127
 0.0308092
 0.0309059
 0.0310028
 0.0311000
 0.0311975
 0.0312952
 0.0313932
 0.0314915
 0.0315900
 0.0316888
 0.0317878
 0.0318871
 0.0319867
 0.0320865
 0.0321866
 0.0322869
 0.0323875
 0.0324884
 0.0325896
 0.0326910
 0.0327927
 0.0328946
 0.0329969
 0.0330994
 0.0332021
 0.0333052
 0.0334085
 0.0335121
 0.0336159
 0.0337201
 0.0338245
 0.0339292
 0.0340341
 0.0341394
 0.0342449
 0.0343507
 0.0344568
 0.0345631
 0.0346698
 0.0347767
 0.0348839
 0.0349914
 0.0350992
 0.0352073
 0.0353156
 0.0354243
 0.0355332
 0.0356424
 0.0357519
 0.0358617
 0.0359718
 0.0360822
 0.0361928
 0.0363038
 0.0364150
 0.0365266
 0.0366384
 0.0367506
 0.0368630
 0.0369758
 0.0370888
 0.0372021
 0.0373158
 0.0374297
 0.0375439
 0.0376585
 0.0377733
 0.0378885
 0.0380039
 0.0381197
 0.0382357
 0.0383521
 0.0384688
 0.0385858
 0.0387031
 0.0388207
 0.0389386
 0.0390568
 0.0391754
 0.0392942
 0.0394134
 0.0395329
 0.0396527
 0.0397728
 0.0398933
 0.0400140
 0.0401351
 0.0402565
 0.0403783
 0.0405003
 0.0406227
 0.0407454
 0.0408684
 0.0409917
 0.0411154
 0.0412394
 0.0413637
 0.0414884
 0.0416134
 0.0417387
 0.0418643
 0.0419903
 0.0421166
 0.0422433
 0.0423703
 0.0424976
 0.0426252
 0.0427532
 0.0428816
 0.0430102
 0.0431393
 0.0432686
 0.0433983
 0.0435284
 0.0436588
 0.0437895
 0.0439206
 0.0440520
 0.0441838
 0.0443159
 0.0444484
 0.0445812
 0.0447144
 0.0448479
 0.0449818
 0.0451160
 0.0452506
 0.0453856
 0.0455209
 0.0456565
 0.0457926
 0.0459290
 0.0460657
 0.0462028
 0.0463403
 0.0464781
 0.0466163
 0.0467549
 0.0468938
 0.0470331
 0.0471728
 0.0473128
 0.0474532
 0.0475940
 0.0477352
 0.0478767
 0.0480186
 0.0481609
 0.0483036
 0.0484466
 0.0485900
 0.0487338
 0.0488780
 0.0490225
 0.0491675
 0.0493128
 0.0494585
 0.0496046
 0.0497511
 0.0498979
 0.0500452
 0.0501929
 0.0503409
 0.0504893
 0.0506381
 0.0507874
 0.0509370
 0.0510870
 0.0512374
 0.0513882
 0.0515394
 0.0516910
 0.0518430
 0.0519954
 0.0521482
 0.0523015
 0.0524551
 0.0526091
 0.0527636
 0.0529184
 0.0530737
 0.0532293
 0.0533854
 0.0535419
 0.0536988
 0.0538561
 0.0540139
 0.0541720
 0.0543306
 0.0544896
 0.0546490
 0.0548089
 0.0549691
 0.0551298
 0.0552909
 0.0554525
 0.0556144
 0.0557768
 0.0559397
 0.0561029
 0.0562666
 0.0564307
 0.0565953
 0.0567603
 0.0569257
 0.0570916
 0.0572579
 0.0574247
 0.0575918
 0.0577595
 0.0579276
 0.0580961
 0.0582651
 0.0584345
 0.0586043
 0.0587747
 0.0589454
 0.0591166
 0.0592883
 0.0594604
 0.0596330
 0.0598061
 0.0599796
 0.0601535
 0.0603279
 0.0605028
 0.0606782
 0.0608540
 0.0610302
 0.0612070
 0.0613842
 0.0615619
 0.0617400
 0.0619186
 0.0620977
 0.0622773
 0.0624573
 0.0626379
 0.0628189
 0.0630003
 0.0631823
 0.0633647
 0.0635477
 0.0637311
 0.0639150
 0.0640993
 0.0642842
 0.0644696
 0.0646554
 0.0648418
 0.0650286
 0.0652159
 0.0654038
 0.0655921
 0.0657809
 0.0659702
 0.0661600
 0.0663504
 0.0665412
 0.0667325
 0.0669244
 0.0671167
 0.0673096
 0.0675030
 0.0676968
 0.0678912
 0.0680862
 0.0682816
 0.0684775
 0.0686740
 0.0688710
 0.0690685
 0.0692665
 0.0694651
 0.0696641
 0.0698637
 0.0700639
 0.0702645
 0.0704657
 0.0706675
 0.0708697
 0.0710725
 0.0712759
 0.0714797
 0.0716842
 0.0718891
 0.0720946
 0.0723007
 0.0725073
 0.0727144
 0.0729221
 0.0731303
 0.0733391
 0.0735484
 0.0737583
 0.0739688
 0.0741798
 0.0743913
 0.0746035
 0.0748162
 0.0750294
 0.0752432
 0.0754576
 0.0756726
 0.0758881
 0.0761042
 0.0763208
 0.0765381
 0.0767559
 0.0769743
 0.0771932
 0.0774128
 0.0776329
 0.0778536
 0.0780749
 0.0782968
 0.0785193
 0.0787423
 0.0789660
 0.0791902
 0.0794151
 0.0796405
 0.0798665
 0.0800931
 0.0803204
 0.0805482
 0.0807766
 0.0810057
 0.0812353
 0.0814656
 0.0816964
 0.0819279
 0.0821600
 0.0823927
 0.0826260
 0.0828599
 0.0830945
 0.0833297
 0.0835655
 0.0838019
 0.0840389
 0.0842766
 0.0845149
 0.0847538
 0.0849934
 0.0852336
 0.0854745
 0.0857159
 0.0859581
 0.0862008
 0.0864442
 0.0866883
 0.0869330
 0.0871783
 0.0874243
 0.0876709
 0.0879182
 0.0881662
 0.0884148
 0.0886641
 0.0889140
 0.0891646
 0.0894158
 0.0896677
 0.0899203
 0.0901736
 0.0904275
 0.0906821
 0.0909374
 0.0911933
 0.0914499
 0.0917072
 0.0919652
 0.0922239
 0.0924832
 0.0927433
 0.0930040
 0.0932654
 0.0935275
 0.0937904
 0.0940539
 0.0943181
 0.0945830
 0.0948486
 0.0951149
 0.0953819
 0.0956496
 0.0959180
 0.0961872
 0.0964570
 0.0967276
 0.0969988
 0.0972708
 0.0975436
 0.0978170
 0.0980912
 0.0983661
 0.0986417
 0.0989180
 0.0991951
 0.0994729
 0.0997515
 0.1000308
 0.1003108
 0.1005916
 0.1008731
 0.1011554
 0.1014384
 0.1017221
 0.1020066
 0.1022919
 0.1025779
 0.1028647
 0.1031522
 0.1034405
 0.1037296
 0.1040194
 0.1043100
 0.1046014
 0.1048935
 0.1051864
 0.1054801
 0.1057745
 0.1060698
 0.1063658
 0.1066626
 0.1069602
 0.1072586
 0.1075578
 0.1078577
 0.1081585
 0.1084600
 0.1087624
 0.1090655
 0.1093695
 0.1096743
 0.1099798
 0.1102862
 0.1105934
 0.1109014
 0.1112102
 0.1115199
 0.1118303
 0.1121416
 0.1124537
 0.1127666
 0.1130804
 0.1133950
 0.1137104
 0.1140267
 0.1143438
 0.1146617
 0.1149805
 0.1153001
 0.1156206
 0.1159419
 0.1162640
 0.1165871
 0.1169109
 0.1172357
 0.1175613
 0.1178877
 0.1182150
 0.1185432
 0.1188723
 0.1192022
 0.1195330
 0.1198647
 0.1201973
 0.1205307
 0.1208650
 0.1212002
 0.1215363
 0.1218733
 0.1222112
 0.1225500
 0.1228896
 0.1232302
 0.1235717
 0.1239140
 0.1242573
 0.1246015
 0.1249466
 0.1252926
 0.1256396
 0.1259874
 0.1263362
 0.1266859
 0.1270365
 0.1273881
 0.1277405
 0.1280940
 0.1284483
 0.1288036
 0.1291598
 0.1295170
 0.1298751
 0.1302342
 0.1305942
 0.1309552
 0.1313171
 0.1316800
 0.1320438
 0.1324087
 0.1327744
 0.1331412
 0.1335089
 0.1338776
 0.1342473
 0.1346179
 0.1349895
 0.1353622
 0.1357358
 0.1361103
 0.1364859
 0.1368625
 0.1372401
 0.1376187
 0.1379982
 0.1383788
 0.1387604
 0.1391430
 0.1395266
 0.1399112
 0.1402969
 0.1406836
 0.1410713
 0.1414600
 0.1418497
 0.1422405
 0.1426323
 0.1430252
 0.1434191
 0.1438140
 0.1442100
 0.1446070
 0.1450051
 0.1454043
 0.1458045
 0.1462057
 0.1466080
 0.1470114
 0.1474159
 0.1478214
 0.1482280
 0.1486357
 0.1490444
 0.1494543
 0.1498652
 0.1502772
 0.1506903
 0.1511045
 0.1515198
 0.1519362
 0.1523537
 0.1527723
 0.1531920
 0.1536128
 0.1540347
 0.1544578
 0.1548820
 0.1553073
 0.1557337
 0.1561612
 0.1565899
 0.1570197
 0.1574507
 0.1578828
 0.1583160
 0.1587504
 0.1591860
 0.1596227
 0.1600605
 0.1604995
 0.1609397
 0.1613810
 0.1618236
 0.1622672
 0.1627121
 0.1631581
 0.1636053
 0.1640537
 0.1645033
 0.1649541
 0.1654061
 0.1658592
 0.1663136
 0.1667692
 0.1672260
 0.1676840
 0.1681432
 0.1686036
 0.1690652
 0.1695281
 0.1699922
 0.1704575
 0.1709240
 0.1713918
 0.1718608
 0.1723311
 0.1728026
 0.1732754
 0.1737494
 0.1742246
 0.1747011
 0.1751789
 0.1756580
 0.1761383
 0.1766199
 0.1771028
 0.1775869
 0.1780723
 0.1785591
 0.1790471
 0.1795364
 0.1800269
 0.1805188
 0.1810120
 0.1815065
 0.1820023
 0.1824995
 0.1829979
 0.1834977
 0.1839987
 0.1845011
 0.1850049
 0.1855100
 0.1860164
 0.1865241
 0.1870332
 0.1875437
 0.1880555
 0.1885686
 0.1890831
 0.1895990
 0.1901163
 0.1906349
 0.1911548
 0.1916762
 0.1921989
 0.1927231
 0.1932486
 0.1937755
 0.1943038
 0.1948335
 0.1953646
 0.1958971
 0.1964310
 0.1969664
 0.1975031
 0.1980413
 0.1985809
 0.1991219
 0.1996644
 0.2002083
 0.2007536
 0.2013004
 0.2018486
 0.2023983
 0.2029495
 0.2035021
 0.2040561
 0.2046117
 0.2051687
 0.2057271
 0.2062871
 0.2068485
 0.2074114
 0.2079759
 0.2085418
 0.2091092
 0.2096781
 0.2102485
 0.2108204
 0.2113939
 0.2119688
 0.2125453
 0.2131233
 0.2137029
 0.2142840
 0.2148666
 0.2154507
 0.2160364
 0.2166237
 0.2172125
 0.2178029
 0.2183948
 0.2189883
 0.2195834
 0.2201801
 0.2207783
 0.2213781
 0.2219795
 0.2225825
 0.2231871
 0.2237933
 0.2244011
 0.2250105
 0.2256215
 0.2262342
 0.2268484
 0.2274643
 0.2280819
 0.2287010
 0.2293218
 0.2299443
 0.2305683
 0.2311941
 0.2318215
 0.2324506
 0.2330813
 0.2337137
 0.2343478
 0.2349835
 0.2356209
 0.2362601
 0.2369009
 0.2375434
 0.2381876
 0.2388335
 0.2394812
 0.2401305
 0.2407816
 0.2414344
 0.2420889
 0.2427452
 0.2434032
 0.2440629
 0.2447244
 0.2453876
 0.2460526
 0.2467194
 0.2473879
 0.2480582
 0.2487302
 0.2494041
 0.2500797
 0.2507571
 0.2514363
 0.2521173
 0.2528002
 0.2534848
 0.2541712
 0.2548595
 0.2555495
 0.2562414
 0.2569352
 0.2576308
 0.2583282
 0.2590274
 0.2597285
 0.2604315
 0.2611364
 0.2618431
 0.2625516
 0.2632621
 0.2639744
 0.2646886
 0.2654047
 0.2661227
 0.2668426
 0.2675645
 0.2682882
 0.2690138
 0.2697414
 0.2704709
 0.2712023
 0.2719356
 0.2726710
 0.2734082
 0.2741474
 0.2748886
 0.2756317
 0.2763768
 0.2771238
 0.2778729
 0.2786239
 0.2793769
 0.2801319
 0.2808889
 0.2816479
 0.2824090
 0.2831720
 0.2839371
 0.2847041
 0.2854733
 0.2862444
 0.2870176
 0.2877929
 0.2885702
 0.2893495
 0.2901309
 0.2909144
 0.2917000
 0.2924876
 0.2932774
 0.2940692
 0.2948631
 0.2956591
 0.2964572
 0.2972575
 0.2980599
 0.2988643
 0.2996710
 0.3004797
 0.3012906
 0.3021037
 0.3029189
 0.3037362
 0.3045557
 0.3053774
 0.3062013
 0.3070273
 0.3078556
 0.3086860
 0.3095186
 0.3103535
 0.3111905
 0.3120298
 0.3128713
 0.3137150
 0.3145609
 0.3154091
 0.3162596
 0.3171122
 0.3179672
 0.3188244
 0.3196839
 0.3205456
 0.3214097
 0.3222760
 0.3231446
 0.3240156
 0.3248888
 0.3257643
 0.3266422
 0.3275224
 0.3284049
 0.3292897
 0.3301769
 0.3310665
 0.3319584
 0.3328527
 0.3337493
 0.3346483
 0.3355497
 0.3364535
 0.3373596
 0.3382682
 0.3391792
 0.3400926
 0.3410084
 0.3419266
 0.3428473
 0.3437704
 0.3446959
 0.3456239
 0.3465544
 0.3474873
 0.3484227
 0.3493605
 0.3503009
 0.3512437
 0.3521891
 0.3531369
 0.3540873
 0.3550401
 0.3559955
 0.3569535
 0.3579139
 0.3588769
 0.3598425
 0.3608106
 0.3617813
 0.3627545
 0.3637304
 0.3647088
 0.3656898
 0.3666734
 0.3676596
 0.3686484
 0.3696398
 0.3706339
 0.3716306
 0.3726299
 0.3736319
 0.3746365
 0.3756438
 0.3766538
 0.3776664
 0.3786817
 0.3796997
 0.3807204
 0.3817438
 0.3827699
 0.3837988
 0.3848303
 0.3858646
 0.3869017
 0.3879414
 0.3889840
 0.3900293
 0.3910773
 0.3921281
 0.3931818
 0.3942382
 0.3952974
 0.3963594
 0.3974242
 0.3984919
 0.3995623
 0.4006356
 0.4017118
 0.4027908
 0.4038726
 0.4049574
 0.4060450
 0.4071354
 0.4082288
 0.4093251
 0.4104242
 0.4115263
 0.4126313
 0.4137392
 0.4148500
 0.4159638
 0.4170806
 0.4182003
 0.4193230
 0.4204486
 0.4215772
 0.4227088
 0.4238434
 0.4249810
 0.4261217
 0.4272653
 0.4284120
 0.4295617
 0.4307145
 0.4318703
 0.4330291
 0.4341911
 0.4353561
 0.4365242
 0.4376954
 0.4388697
 0.4400471
 0.4412276
 0.4424113
 0.4435981
 0.4447880
 0.4459811
 0.4471773
 0.4483767
 0.4495793
 0.4507851
 0.4519940
 0.4532062
 0.4544216
 0.4556402
 0.4568620
 0.4580871
 0.4593154
 0.4605469
 0.4617817
 0.4630198
 0.4642612
 0.4655059
 0.4667538
 0.4680051
 0.4692596
 0.4705175
 0.4717787
 0.4730433
 0.4743112
 0.4755825
 0.4768571
 0.4781351
 0.4794165
 0.4807013
 0.4819895
 0.4832811
 0.4845762
 0.4858746
 0.4871765
 0.4884819
 0.4897907
 0.4911029
 0.4924187
 0.4937379
 0.4950606
 0.4963868
 0.4977166
 0.4990498
 0.5003866
 0.5017269
 0.5030708
 0.5044183
 0.5057693
 0.5071238
 0.5084820
 0.5098438
 0.5112092
 0.5125782
 0.5139508
 0.5153270
 0.5167069
 0.5180905
 0.5194777
 0.5208686
 0.5222631
 0.5236614
 0.5250634
 0.5264691
 0.5278785
 0.5292916
 0.5307085
 0.5321291
 0.5335535
 0.5349817
 0.5364136
 0.5378494
 0.5392889
 0.5407323
 0.5421795
 0.5436305
 0.5450853
 0.5465440
 0.5480066
 0.5494731
 0.5509434
 0.5524176
 0.5538957
 0.5553778
 0.5568637
 0.5583536
 0.5598475
 0.5613453
 0.5628471
 0.5643528
 0.5658625
 0.5673763
 0.5688940
 0.5704158
 0.5719416
 0.5734714
 0.5750053
 0.5765433
 0.5780853
 0.5796314
 0.5811816
 0.5827359
 0.5842943
 0.5858569
 0.5874235
 0.5889944
 0.5905694
 0.5921485
 0.5937319
 0.5953194
 0.5969112
 0.5985071
 0.6001073
 0.6017118
 0.6033204
 0.6049334
 0.6065506
 0.6081721
 0.6097979
 0.6114280
 0.6130624
 0.6147011
 0.6163442
 0.6179916
 0.6196434
 0.6212996
 0.6229601
 0.6246251
 0.6262944
 0.6279682
 0.6296464
 0.6313291
 0.6330162
 0.6347078
 0.6364039
 0.6381044
 0.6398095
 0.6415191
 0.6432332
 0.6449518
 0.6466750
 0.6484027
 0.6501351
 0.6518720
 0.6536135
 0.6553597
 0.6571104
 0.6588658
 0.6606259
 0.6623906
 0.6641599
 0.6659340
 0.6677128
 0.6694962
 0.6712844
 0.6730774
 0.6748751
 0.6766775
 0.6784847
 0.6802967
 0.6821135
 0.6839351
 0.6857616
 0.6875928
 0.6894290
 0.6912699
 0.6931158
 0.6949666
 0.6968222
 0.6986828
 0.7005483
 0.7024187
 0.7042941
 0.7061745
 0.7080598
 0.7099501
 0.7118455
 0.7137458
 0.7156512
 0.7175616
 0.7194771
 0.7213977
 0.7233233
 0.7252541
 0.7271900
 0.7291310
 0.7310771
 0.7330284
 0.7349848
