research/resources/notebooks/colour-science/DCP_Profiles_Data.json
{
    "Nikon D1 Adobe Standard": {
        "CalibrationIlluminant1": 17,
        "CCT1": 2850,
        "uv1": [
            0.25619385964912283,
            0.3495973684210526
        ],
        "CalibrationIlluminant2": 21,
        "CCT2": 6500,
        "uv2": [
            0.20048615384615384,
            0.3103269230769231
        ],
        "ColorMatrix1": [
            [
                0.8452,
                -0.3021,
                -0.0439
            ],
            [
                -0.8003,
                1.5752,
                0.2382
            ],
            [
                -0.1568,
                0.215,
                0.8985
            ]
        ],
        "ColorMatrix2": [
            [
                0.7637,
                -0.2199,
                -0.0974
            ],
            [
                -0.9109,
                1.7099,
                0.2043
            ],
            [
                -0.2822,
                0.3306,
                0.8372
            ]
        ],
        "Primaries1": [
            [
                0.6432175660804286,
                0.3214520885374159
            ],
            [
                0.297665083339761,
                0.8549729883709586
            ],
            [
                -0.003051252137225616,
                -0.18053008627113595
            ]
        ],
        "Primaries2": [
            [
                0.6061276925485596,
                0.3132662079769884
            ],
            [
                0.2649293699997365,
                1.0671892286267177
            ],
            [
                0.10485633888830183,
                -0.058026176190067634
            ]
        ]
    },
    "Fujifilm X-T4 Adobe Standard": {
        "CalibrationIlluminant1": 17,
        "CCT1": 2850,
        "uv1": [
            0.25619385964912283,
            0.3495973684210526
        ],
        "CalibrationIlluminant2": 21,
        "CCT2": 6500,
        "uv2": [
            0.20048615384615384,
            0.3103269230769231
        ],
        "ColorMatrix1": [
            [
                1.6064,
                -0.9942,
                0.112
            ],
            [
                -0.376,
                1.2096,
                0.1853
            ],
            [
                -0.0007,
                0.0545,
                0.6654
            ]
        ],
        "ColorMatrix2": [
            [
                1.3426,
                -0.6334,
                -0.1177
            ],
            [
                -0.4244,
                1.2136,
                0.2371
            ],
            [
                -0.058,
                0.1303,
                0.598
            ]
        ],
        "Primaries1": [
            [
                0.7752449120372882,
                0.24391776737921492
            ],
            [
                0.4046898499315764,
                0.6479556244239268
            ],
            [
                -0.3513949259349152,
                -0.37346282527313085
            ]
        ],
        "Primaries2": [
            [
                0.7314341105651451,
                0.2526816837059329
            ],
            [
                0.3558635757539564,
                0.7794601118353743
            ],
            [
                -0.0067644721276006025,
                -0.24738832392463678
            ]
        ]
    },
    "Olympus C-7070WZ Adobe Standard": {
        "CalibrationIlluminant1": 17,
        "CCT1": 2850,
        "uv1": [
            0.25619385964912283,
            0.3495973684210526
        ],
        "CalibrationIlluminant2": 21,
        "CCT2": 6500,
        "uv2": [
            0.20048615384615384,
            0.3103269230769231
        ],
        "ColorMatrix1": [
            [
                1.1496,
                -0.4922,
                -0.0234
            ],
            [
                -0.5988,
                1.3406,
                0.2871
            ],
            [
                -0.0781,
                0.113,
                0.6516
            ]
        ],
        "ColorMatrix2": [
            [
                1.0252,
                -0.3531,
                -0.1095
            ],
            [
                -0.7114,
                1.485,
                0.2436
            ],
            [
                -0.1451,
                0.1723,
                0.6365
            ]
        ],
        "Primaries1": [
            [
                0.6750967138058338,
                0.29517624941679
            ],
            [
                0.32661054066474937,
                0.7673083707332572
            ],
            [
                -0.1340010631783769,
                -0.38520317215920663
            ]
        ],
        "Primaries2": [
            [
                0.6389622914786759,
                0.2953189853086318
            ],
            [
                0.2870924266394097,
                0.8877823337756082
            ],
            [
                0.0651307271259992,
                -0.1461254676934677
            ]
        ]
    },
    "Canon EOS-1D Mark II Adobe Standard": {
        "CalibrationIlluminant1": 17,
        "CCT1": 2850,
        "uv1": [
            0.25619385964912283,
            0.3495973684210526
        ],
        "CalibrationIlluminant2": 21,
        "CCT2": 6500,
        "uv2": [
            0.20048615384615384,
            0.3103269230769231
        ],
        "ColorMatrix1": [
            [
                0.718,
                -0.1623,
                -0.0246
            ],
            [
                -0.6795,
                1.4095,
                0.2977
            ],
            [
                -0.0978,
                0.1327,
                0.8537
            ]
        ],
        "ColorMatrix2": [
            [
                0.6264,
                -0.0582,
                -0.0724
            ],
            [
                -0.8312,
                1.5948,
                0.2505
            ],
            [
                -0.1743,
                0.1919,
                0.8664
            ]
        ],
        "Primaries1": [
            [
                0.6603266416781881,
                0.3126202502679667
            ],
            [
                0.2030068296865349,
                0.9161428592971737
            ],
            [
                -0.01974208574903472,
                -0.28511599765601436
            ]
        ],
        "Primaries2": [
            [
                0.6265392522025282,
                0.3178066719537862
            ],
            [
                0.08001293842120202,
                1.161053424736924
            ],
            [
                0.105665024831764,
                -0.1013182642561042
            ]
        ]
    },
    "Nikon Coolpix B700 Adobe Standard": {
        "CalibrationIlluminant1": 17,
        "CCT1": 2850,
        "uv1": [
            0.25619385964912283,
            0.3495973684210526
        ],
        "CalibrationIlluminant2": 21,
        "CCT2": 6500,
        "uv2": [
            0.20048615384615384,
            0.3103269230769231
        ],
        "ColorMatrix1": [
            [
                1.5847,
                -0.8464,
                0.0823
            ],
            [
                -0.0966,
                0.8876,
                0.2491
            ],
            [
                0.0778,
                0.0498,
                0.5707
            ]
        ],
        "ColorMatrix2": [
            [
                1.4387,
                -0.6014,
                -0.1299
            ],
            [
                -0.1357,
                0.9975,
                0.1616
            ],
            [
                0.0467,
                0.1047,
                0.4744
            ]
        ],
        "Primaries1": [
            [
                0.998699169982169,
                0.15058778866536546
            ],
            [
                0.3927411701406239,
                0.7239736556684325
            ],
            [
                -0.4448041610526449,
                -0.6309613131963967
            ]
        ],
        "Primaries2": [
            [
                0.976184991240543,
                0.15386983837278798
            ],
            [
                0.34763737752775353,
                0.8810264907529887
            ],
            [
                0.027658901166482123,
                -0.1834872696293873
            ]
        ]
    },
    "Sony NEX-VG20 Adobe Standard": {
        "CalibrationIlluminant1": 17,
        "CCT1": 2850,
        "uv1": [
            0.25619385964912283,
            0.3495973684210526
        ],
        "CalibrationIlluminant2": 21,
        "CCT2": 6500,
        "uv2": [
            0.20048615384615384,
            0.3103269230769231
        ],
        "ColorMatrix1": [
            [
                0.6123,
                -0.1803,
                -0.0213
            ],
            [
                -0.4145,
                1.1075,
                0.3541
            ],
            [
                -0.041,
                0.0927,
                0.7033
            ]
        ],
        "ColorMatrix2": [
            [
                0.5991,
                -0.1456,
                -0.0455
            ],
            [
                -0.4764,
                1.2135,
                0.298
            ],
            [
                -0.0707,
                0.1425,
                0.6701
            ]
        ],
        "Primaries1": [
            [
                0.7243050564354921,
                0.2689154053309256
            ],
            [
                0.2470814983401484,
                0.8506341971592328
            ],
            [
                -0.1133460176641302,
                -0.5856354515219679
            ]
        ],
        "Primaries2": [
            [
                0.7091631242004791,
                0.2743592827753698
            ],
            [
                0.21987664595815082,
                0.9613634963498899
            ],
            [
                0.023068923653371376,
                -0.3059917264039641
            ]
        ]
    },
    "Panasonic DMC-FZ1000 Adobe Standard": {
        "CalibrationIlluminant1": 17,
        "CCT1": 2850,
        "uv1": [
            0.25619385964912283,
            0.3495973684210526
        ],
        "CalibrationIlluminant2": 21,
        "CCT2": 6500,
        "uv2": [
            0.20048615384615384,
            0.3103269230769231
        ],
        "ColorMatrix1": [
            [
                0.8393,
                -0.3595,
                -0.0084
            ],
            [
                -0.396,
                1.1894,
                0.2333
            ],
            [
                -0.0445,
                0.1208,
                0.6062
            ]
        ],
        "ColorMatrix2": [
            [
                0.783,
                -0.2696,
                -0.0763
            ],
            [
                -0.3325,
                1.1667,
                0.1866
            ],
            [
                -0.0641,
                0.1712,
                0.4824
            ]
        ],
        "Primaries1": [
            [
                0.7469105882451108,
                0.2476004949091603
            ],
            [
                0.33896317645708496,
                0.7944719016880403
            ],
            [
                -0.1253189739490232,
                -0.3264964232884847
            ]
        ],
        "Primaries2": [
            [
                0.7614659966670615,
                0.21291398721545915
            ],
            [
                0.3136085282984617,
                0.9993989051571037
            ],
            [
                0.05218229798456014,
                -0.16275091227039568
            ]
        ]
    },
    "Panasonic DMC-LX1 Adobe Standard": {
        "CalibrationIlluminant1": 17,
        "CCT1": 2850,
        "uv1": [
            0.25619385964912283,
            0.3495973684210526
        ],
        "CalibrationIlluminant2": 21,
        "CCT2": 6500,
        "uv2": [
            0.20048615384615384,
            0.3103269230769231
        ],
        "ColorMatrix1": [
            [
                1.2679,
                -0.6394,
                -0.0077
            ],
            [
                -0.651,
                1.3697,
                0.3128
            ],
            [
                -0.0364,
                0.0551,
                0.8614
            ]
        ],
        "ColorMatrix2": [
            [
                1.0704,
                -0.4187,
                -0.123
            ],
            [
                -0.8314,
                1.5953,
                0.2501
            ],
            [
                -0.092,
                0.0945,
                0.8927
            ]
        ],
        "Primaries1": [
            [
                0.6735958762749937,
                0.318300412105061
            ],
            [
                0.344908115376759,
                0.6842880987408482
            ],
            [
                -0.25624919202588414,
                -0.5296366461108405
            ]
        ],
        "Primaries2": [
            [
                0.6401151559277419,
                0.32871286138555816
            ],
            [
                0.2911764168370261,
                0.7591813860443252
            ],
            [
                0.07117900244930209,
                -0.12869455014204564
            ]
        ]
    },
    "Panasonic DMC-ZS40 Adobe Standard": {
        "CalibrationIlluminant1": 17,
        "CCT1": 2850,
        "uv1": [
            0.25619385964912283,
            0.3495973684210526
        ],
        "CalibrationIlluminant2": 21,
        "CCT2": 6500,
        "uv2": [
            0.20048615384615384,
            0.3103269230769231
        ],
        "ColorMatrix1": [
            [
                0.9694,
                -0.4422,
                0.0423
            ],
            [
                -0.2524,
                0.9988,
                0.2964
            ],
            [
                0.0026,
                0.1012,
                0.5939
            ]
        ],
        "ColorMatrix2": [
            [
                0.8607,
                -0.2822,
                -0.0808
            ],
            [
                -0.3755,
                1.193,
                0.2049
            ],
            [
                -0.082,
                0.206,
                0.5224
            ]
        ],
        "Primaries1": [
            [
                0.8213108479040395,
                0.2197257877701266
            ],
            [
                0.3590948243606988,
                0.7744413037457252
            ],
            [
                -0.449822663522877,
                -0.7734377530486259
            ]
        ],
        "Primaries2": [
            [
                0.7440822533297851,
                0.2296987550173133
            ],
            [
                0.31165695097593343,
                1.0557349520548227
            ],
            [
                0.04742002675449219,
                -0.17951362865265938
            ]
        ]
    },
    "Canon PowerShot SX1 IS Adobe Standard": {
        "CalibrationIlluminant1": 17,
        "CCT1": 2850,
        "uv1": [
            0.25619385964912283,
            0.3495973684210526
        ],
        "CalibrationIlluminant2": 21,
        "CCT2": 6500,
        "uv2": [
            0.20048615384615384,
            0.3103269230769231
        ],
        "ColorMatrix1": [
            [
                0.786,
                -0.1783,
                0.0256
            ],
            [
                -0.3961,
                1.0537,
                0.3978
            ],
            [
                0.0062,
                0.0771,
                0.4698
            ]
        ],
        "ColorMatrix2": [
            [
                0.6578,
                -0.0259,
                -0.0502
            ],
            [
                -0.5974,
                1.303,
                0.3309
            ],
            [
                -0.0308,
                0.1058,
                0.497
            ]
        ],
        "Primaries1": [
            [
                0.7540238591606385,
                0.3061740231554061
            ],
            [
                0.2180895561324761,
                0.9388685555818286
            ],
            [
                -0.2906237314288606,
                -0.9582652544311212
            ]
        ],
        "Primaries2": [
            [
                0.6991144309978525,
                0.32721728864860267
            ],
            [
                0.02862506164249917,
                1.231829479716485
            ],
            [
                0.07996613808671917,
                -0.2640339821151102
            ]
        ]
    },
    "Sony DSC-RX10M3 Adobe Standard": {
        "CalibrationIlluminant1": 17,
        "CCT1": 2850,
        "uv1": [
            0.25619385964912283,
            0.3495973684210526
        ],
        "CalibrationIlluminant2": 21,
        "CCT2": 6500,
        "uv2": [
            0.20048615384615384,
            0.3103269230769231
        ],
        "ColorMatrix1": [
            [
                0.6486,
                -0.1903,
                -0.0025
            ],
            [
                -0.3661,
                1.1315,
                0.2685
            ],
            [
                -0.07,
                0.1611,
                0.5382
            ]
        ],
        "ColorMatrix2": [
            [
                0.6679,
                -0.1825,
                -0.0745
            ],
            [
                -0.5047,
                1.3256,
                0.1953
            ],
            [
                -0.158,
                0.2422,
                0.5183
            ]
        ],
        "Primaries1": [
            [
                0.7402899792780343,
                0.23324220260699952
            ],
            [
                0.2835768595487914,
                0.9698450119926415
            ],
            [
                -0.10902296075938683,
                -0.3912931296615377
            ]
        ],
        "Primaries2": [
            [
                0.6680194608309776,
                0.2409215452372684
            ],
            [
                0.27532790795844747,
                1.2028096191514017
            ],
            [
                0.08266153240549427,
                -0.12159331798297268
            ]
        ]
    },
    "Apple iPhone12,3 back telephoto camera Adobe Standard": {
        "CalibrationIlluminant1": 17,
        "CCT1": 2850,
        "uv1": [
            0.25619385964912283,
            0.3495973684210526
        ],
        "CalibrationIlluminant2": 21,
        "CCT2": 6500,
        "uv2": [
            0.20048615384615384,
            0.3103269230769231
        ],
        "ColorMatrix1": [
            [
                1.1521,
                -0.5707,
                -0.0128
            ],
            [
                -0.3044,
                1.163,
                0.1582
            ],
            [
                -0.0029,
                0.1169,
                0.5165
            ]
        ],
        "ColorMatrix2": [
            [
                1.1667,
                -0.5188,
                -0.1135
            ],
            [
                -0.3014,
                1.1506,
                0.1697
            ],
            [
                0.0012,
                0.1276,
                0.4869
            ]
        ],
        "Primaries1": [
            [
                0.8237672467394604,
                0.2218100401489594
            ],
            [
                0.3882999171286775,
                0.7878303879964086
            ],
            [
                -0.08263674177503552,
                -0.19548940758870564
            ]
        ],
        "Primaries2": [
            [
                0.8341060785018976,
                0.22759442714062997
            ],
            [
                0.3625307836469789,
                0.8650676270043482
            ],
            [
                0.039962703252552675,
                -0.15381136761925013
            ]
        ]
    },
    "Sony ILCE-6300 Adobe Standard": {
        "CalibrationIlluminant1": 17,
        "CCT1": 2850,
        "uv1": [
            0.25619385964912283,
            0.3495973684210526
        ],
        "CalibrationIlluminant2": 21,
        "CCT2": 6500,
        "uv2": [
            0.20048615384615384,
            0.3103269230769231
        ],
        "ColorMatrix1": [
            [
                0.6502,
                -0.2407,
                0.0023
            ],
            [
                -0.3899,
                1.1688,
                0.2511
            ],
            [
                -0.0469,
                0.1068,
                0.6781
            ]
        ],
        "ColorMatrix2": [
            [
                0.5973,
                -0.1695,
                -0.0419
            ],
            [
                -0.3826,
                1.1797,
                0.2293
            ],
            [
                -0.0639,
                0.1398,
                0.5789
            ]
        ],
        "Primaries1": [
            [
                0.7423356513656627,
                0.2448917429719841
            ],
            [
                0.2992096742081344,
                0.8072343535779846
            ],
            [
                -0.14386024738498462,
                -0.37410310403593233
            ]
        ],
        "Primaries2": [
            [
                0.7399618084266049,
                0.23514586550530256
            ],
            [
                0.2543905606378931,
                0.9459752849509503
            ],
            [
                0.01995227809355055,
                -0.22842087650942386
            ]
        ]
    },
    "Pixel 2 XL-Google-google Adobe Standard": {
        "CalibrationIlluminant1": 17,
        "CCT1": 2850,
        "uv1": [
            0.25619385964912283,
            0.3495973684210526
        ],
        "CalibrationIlluminant2": 21,
        "CCT2": 6500,
        "uv2": [
            0.20048615384615384,
            0.3103269230769231
        ],
        "ColorMatrix1": [
            [
                1.2341,
                -0.666,
                0.0994
            ],
            [
                -0.2806,
                1.0683,
                0.2451
            ],
            [
                0.0127,
                0.0727,
                0.5789
            ]
        ],
        "ColorMatrix2": [
            [
                1.0612,
                -0.4169,
                -0.1001
            ],
            [
                -0.3982,
                1.2675,
                0.1412
            ],
            [
                -0.0558,
                0.162,
                0.5206
            ]
        ],
        "Primaries1": [
            [
                0.820289334746307,
                0.22610070854729544
            ],
            [
                0.3897514059523736,
                0.7076703950015134
            ],
            [
                -0.5067112926405247,
                -0.6213291138740572
            ]
        ],
        "Primaries2": [
            [
                0.7559515931677384,
                0.2366689952540869
            ],
            [
                0.33523642687027055,
                0.9129105508978699
            ],
            [
                0.059810968218029,
                -0.09672197793056479
            ]
        ]
    },
    "Nikon 1 J5 Adobe Standard": {
        "CalibrationIlluminant1": 17,
        "CCT1": 2850,
        "uv1": [
